X: 1
T: Paddy Joe's
M: 12/8
L: 1/8
R: slide
K: Ador
|: edB | c2 A A2 G E2 A A2 G | E2 A A2 B c2 e d2 B |
c2 A A2 G E2 A A2 B | c2 e dcB A3 :|
|: A2 B | cBc d^cd e2 a a2 g | e2 d e2 f g2 a g3 | 
[1 c3 d^cd e2 a a2 g | efg d2 B B2 A :|
[2 a2 b a2 g efg d2 B | efg f2 a g3 ||
